public/images/logo2.svg

<svg width="163" height="32" viewBox="0 0 163 32" fill="none" xmlns="http://www.w3.org/2000/svg">
<g clip-path="url(#clip0_326_2900)">
<path d="M29.7189 0.0630039C29.0284 0.0120007 23.927 0 16.0609 0C8.19477 0 3.10244 0.0120007 2.40597 0.0630039C1.70649 0.114007 1.11857 0.297018 0.708525 0.699044C0.3015 1.09807 0.117585 1.6591 0.06633 2.32815C0.015075 2.99719 0 8.14551 0 15.979C0 23.8125 0.015075 28.9638 0.06633 29.6328C0.117585 30.3019 0.3015 30.8659 0.70551 31.262C1.10952 31.658 1.70649 31.838 2.40296 31.898C3.10244 31.958 8.19477 32 16.0609 32C23.927 32 29.0194 31.958 29.7189 31.898C30.4183 31.838 31.0063 31.664 31.4193 31.262C31.8233 30.8659 32.0072 30.3019 32.0585 29.6328C32.1098 28.9668 32.1218 23.8125 32.1218 15.979C32.1218 8.14551 32.1098 2.99719 32.0585 2.32815C32.0072 1.6591 31.8233 1.09807 31.4193 0.699044C31.0093 0.294018 30.4183 0.114007 29.7189 0.0630039Z" fill="#F46C00"/>
<path d="M21.8317 7.13772C20.6046 7.07771 18.9463 7.05371 16.064 7.05371C13.1816 7.05371 11.5173 7.07771 10.2933 7.13772C9.06917 7.19772 8.00186 7.55774 7.21796 8.26579C6.36773 9.03683 5.87628 10.1499 5.85517 11.437C5.83407 12.7271 5.83105 13.5281 5.83105 15.6102C5.83105 17.6924 5.83708 18.5144 5.85517 19.7835C5.87628 21.0526 6.36471 22.1837 7.21494 22.9547C7.99884 23.6657 9.07218 24.0198 10.2902 24.0828C11.5083 24.1458 13.1756 24.2028 16.061 24.2028C18.9463 24.2028 20.6015 24.1458 21.8287 24.0828C23.0497 24.0168 24.1231 23.6628 24.904 22.9547C25.7542 22.1837 26.2456 21.0526 26.2637 19.7835C26.2848 18.5144 26.2909 17.6984 26.2909 15.6102C26.2909 13.5221 26.2848 12.7271 26.2637 11.437C26.2426 10.1469 25.7512 9.03383 24.9009 8.26579C24.117 7.55774 23.0467 7.19472 21.8256 7.13772H21.8317Z" fill="white"/>
<path d="M20.1764 10.6777H19.3171V16.7411H20.1764C20.903 16.7411 21.1472 16.2251 21.1472 15.661V11.7608C21.1472 11.1968 20.903 10.6807 20.1764 10.6807V10.6777Z" fill="black"/>
<path d="M14.1584 19.7168C14.2368 20.7189 14.7524 21.5739 16.0669 21.5739C17.3815 21.5739 17.897 20.7189 17.9754 19.7168H14.1615H14.1584Z" fill="black"/>
<path d="M12.9012 15.7481C12.9012 16.2911 12.6661 16.7861 11.9696 16.7861C11.2731 16.7861 11.038 16.2911 11.038 15.7481V10.6777H12.8982V15.7481H12.9012Z" fill="black"/>
<path d="M37.4855 7.00573H38.384V22.0817C37.9106 22.1687 37.4463 22.2617 37.0001 22.3637L36.9669 22.3697L37.2895 23.8428L37.3227 23.8368C39.3126 23.3928 41.1819 22.9037 42.8763 22.3907V26.756H44.4079V7.00573H45.4602V5.55664H37.4885V7.00573H37.4855ZM39.8885 10.792V7.00273H42.8733V10.792H39.8885ZM39.8885 15.7963V12.1391H42.8733V15.7963H39.8885ZM39.8885 21.7247V17.1134H42.8733V20.9866C41.9296 21.2056 40.9256 21.4546 39.8885 21.7247Z" fill="white"/>
<path d="M58.9101 15.133L58.9161 15.166L60.1915 14.89L60.1824 14.857C59.893 13.8159 59.4769 12.7119 58.9493 11.5688L58.9372 11.5418L57.7433 11.8718L57.7584 11.9078C57.9453 12.3548 58.1292 12.7869 58.3041 13.1979L55.6599 13.5699C57.3393 11.4338 58.5905 9.49865 59.3835 7.81855L59.3955 7.79155L58.3162 7.14951L58.283 7.13151L58.2679 7.16451C57.7976 8.11557 57.2458 9.11163 56.6278 10.1167C56.1454 9.52566 55.678 8.97662 55.2378 8.47859C55.9675 7.41052 56.6428 6.26745 57.2519 5.08238L57.2669 5.04938L56.0489 4.52734L56.0338 4.55735C55.5303 5.58041 54.9424 6.58547 54.2911 7.53953C54.0921 7.32652 53.8962 7.13451 53.7002 6.9695L53.6731 6.94549L52.8892 8.04356L52.9103 8.06456C53.9082 8.95862 54.8851 10.0267 55.8167 11.2448C55.2107 12.0488 54.5444 12.9039 53.8389 13.7919L53.1183 13.8999L53.1304 13.9389C53.266 14.335 53.3595 14.728 53.4108 15.106V15.139L58.7051 14.383C58.7865 14.632 58.8528 14.884 58.9011 15.133H58.9101Z" fill="white"/>
<path d="M50.3897 18.7722C50.3897 19.3992 50.3474 19.9993 50.266 20.5633H48.1224V16.186H46.5908V21.9074H49.9103C49.8138 22.1474 49.7083 22.3934 49.5967 22.6394C49.0872 23.7225 48.0741 24.7606 46.5817 25.7266L46.5455 25.7506L47.6731 26.8667L47.6973 26.8517C49.2862 25.8106 50.4047 24.6496 51.0198 23.3985C51.6168 22.1144 51.9213 20.5573 51.9213 18.7722V15.874H50.3897V18.7722Z" fill="white"/>
<path d="M57.8307 20.7704H55.5393V15.8711H54.0077V26.8098H54.065C54.9062 26.8098 55.5393 26.1797 55.5393 25.3427V22.1145H59.3382V16.1861H57.8337V20.7704H57.8307Z" fill="white"/>
<path d="M51.6379 11.7249L51.6288 11.6979L50.4078 11.9169L50.4228 11.9559C50.5676 12.349 50.7093 12.757 50.8449 13.165L48.4299 13.462C50.1575 11.3949 51.454 9.5018 52.2801 7.83969L52.2921 7.81269L51.1826 7.09865L51.1645 7.13165C50.6761 8.05271 50.1153 9.00376 49.4972 9.95782C49.054 9.44179 48.6018 8.92576 48.1586 8.42173C48.9183 7.38966 49.6239 6.27359 50.248 5.10352L50.2661 5.07052L49.048 4.52148L49.0329 4.54849C48.4962 5.55355 47.8812 6.54961 47.2119 7.50667C47.0008 7.29366 46.7928 7.10165 46.5968 6.93364L46.5666 6.90963L45.8099 8.06171L45.834 8.07971C46.8139 8.90176 47.7907 9.90982 48.7374 11.0769C48.0741 11.9049 47.3686 12.769 46.633 13.6511L45.6049 13.7861L45.6169 13.8251C45.7526 14.2211 45.8461 14.6141 45.8973 14.9921V15.0251L51.1645 14.3741C51.2128 14.6411 51.264 14.8841 51.3123 15.1001L51.3183 15.1301L52.5303 14.9441L52.5635 14.9381L52.5575 14.9051C52.3705 13.9001 52.057 12.829 51.6318 11.7219L51.6379 11.7249Z" fill="white"/>
<path d="M66.0948 26.7526H67.6265V25.5285H81.9266V26.7886H81.9839C82.8251 26.7886 83.4582 26.1585 83.4582 25.3215V17.0439H66.0948V26.7526ZM81.9266 18.493V24.0794H67.6265V18.493H81.9266Z" fill="white"/>
<path d="M81.0975 12.3818H68.1993V13.8039H81.0975V12.3818Z" fill="white"/>
<path d="M86.3104 13.0629C80.8864 10.3868 77.1961 7.53359 75.3419 4.58141L75.3328 4.56641H73.961L73.9519 4.58141C71.8595 7.51559 68.127 10.4408 62.8537 13.273L62.8206 13.291L63.6256 14.572L63.6527 14.557C68.2898 12.1779 71.9771 9.3187 74.6183 6.0635C76.8524 9.11469 80.4824 11.9199 85.4059 14.401L85.4331 14.413L86.3436 13.0809L86.3074 13.0629H86.3104Z" fill="white"/>
<path d="M103.161 12.4872V7.57285C105.977 7.17683 108.573 6.6338 110.886 5.96175L110.928 5.94975L110.162 4.66267L110.15 4.63867L110.126 4.64767C107.268 5.51173 104.421 6.07276 101.666 6.31278H101.636V14.3983C101.636 16.8494 101.473 19.0126 101.15 20.8277C100.846 22.6038 100.216 24.3169 99.2809 25.922L99.2628 25.952L100.683 26.687L100.698 26.66C101.636 25.0819 102.29 23.3058 102.64 21.3737C102.989 19.4416 103.167 17.0955 103.167 14.3983V13.9123H107.358V26.7681H107.388C108.229 26.7681 108.863 26.138 108.863 25.301V13.9123H111.917V12.4902H103.167L103.161 12.4872Z" fill="white"/>
<path d="M99.3744 21.2984C97.9845 20.3863 96.7272 19.3303 95.6418 18.1602V17.7912H100.182V16.3421H95.6418V13.6989H99.697V12.2768H97.8096L98.8679 8.30459H100.185V6.8825H95.6448V4.48535H94.1132V6.8825H89.3917V8.30459H90.8872L91.87 12.2768H89.8018V13.6989H94.1132V16.3421H89.2138V17.7912H93.8087C93.2389 18.7902 92.6178 19.7203 91.9665 20.5484C91.1344 21.5654 90.049 22.6425 88.7375 23.7496L88.7103 23.7736L89.7354 24.7846L89.7595 24.7636C91.1917 23.5335 92.3313 22.3935 93.1514 21.3734C93.471 20.9654 93.7966 20.5244 94.1162 20.0563V26.7557H95.6478V19.8823C96.685 21.0464 97.7282 22.0094 98.7503 22.7385L98.7834 22.7625L99.4015 21.3164L99.3774 21.3014L99.3744 21.2984ZM97.285 8.30759L96.275 12.2798H93.4288L92.4941 8.30759H97.282H97.285Z" fill="white"/>
<path d="M133.263 23.8841L133.155 22.723H133.121C132.449 22.795 131.768 22.864 131.08 22.93V15.7596H133.031V14.5205H119.723V15.7596H121.646V23.5871C120.853 23.6051 120.063 23.6381 119.292 23.6921H119.258L119.313 24.9582H119.346C122.928 24.8202 126.359 24.6011 129.549 24.3101V26.3382H131.08V24.1451C131.798 24.0431 132.521 23.9591 133.23 23.8901H133.263V23.8841ZM129.549 21.595V23.068C127.48 23.2241 125.328 23.3711 123.151 23.5061V21.595H129.549ZM129.549 18.7538V20.4579H123.151V18.7538H129.549ZM129.549 15.7566V17.6167H123.151V15.7566H129.549Z" fill="white"/>
<path d="M128.059 5.24414V12.8946H135.371V24.4813C135.371 24.9314 135.147 25.1504 134.686 25.1504H132.331L132.461 25.6154C132.645 26.2815 133.203 26.7045 133.899 26.7045H134.915C136.215 26.7045 136.875 26.0264 136.875 24.6914V5.24414H128.056H128.059ZM129.564 8.49934V6.48322H135.371V8.49934H129.564ZM129.564 11.6525V9.73842H135.371V11.6525H129.564Z" fill="white"/>
<path d="M124.767 5.24421H115.924V26.7526H117.428V12.8917H124.767V5.24121V5.24421ZM123.235 9.73849V11.6526H117.428V9.73849H123.235ZM123.235 6.48329V8.49941H117.428V6.48329H123.235Z" fill="white"/>
<path d="M141.66 18.6131C141.542 19.8372 141.419 20.7492 141.301 21.3192C141.198 21.9283 140.939 22.9844 140.505 24.5475L140.496 24.5835L141.997 24.7965H142.028L142.037 24.7725C142.392 23.4104 142.634 22.3753 142.754 21.6943C142.875 20.9982 142.986 19.9992 143.089 18.7211V18.6881L141.666 18.5801V18.6131H141.66Z" fill="white"/>
<path d="M148.754 18.502L147.464 18.556H147.427L147.43 18.592C147.584 20.2691 147.669 21.7752 147.687 23.0712V23.1042H149.037V23.0712C149.056 22.2222 148.959 20.6951 148.757 18.535V18.502H148.754Z" fill="white"/>
<path d="M160.048 21.3193H156.011C155.788 21.3193 155.686 21.2233 155.686 21.0133V16.8251H160.534V15.481H157.531V12.8378H160.534V11.4937H159.035L160.163 8.45454L158.764 8.21452L158.737 8.20852L157.606 11.4967H156.065L155.046 8.13352L155.037 8.10352L153.611 8.43054L154.609 11.4967H152.954V12.8408H156.135V15.484H152.954V16.8281H154.16V21.3013C154.16 22.2734 154.645 22.7684 155.604 22.7684H160.051V21.3193H160.048Z" fill="white"/>
<path d="M148.344 12.9514L148.335 12.9244L147.011 13.1434L147.023 13.1824C147.222 13.7554 147.4 14.3285 147.551 14.8865L144.126 15.1385C145.796 12.9244 147.319 10.5242 148.652 8.00408L148.67 7.97108L147.304 7.35604L147.274 7.34404L147.259 7.37404C146.553 8.77513 145.775 10.1462 144.949 11.4483C144.37 10.7432 143.788 10.0952 143.225 9.52217C144.189 8.12709 145.1 6.64199 145.929 5.1119L145.947 5.0789L144.657 4.51786L144.627 4.50586L144.611 4.53586C143.921 5.90695 143.11 7.25103 142.199 8.53511C142.022 8.3401 141.838 8.17509 141.66 8.04008L141.633 8.01908L140.819 9.19515L140.8 9.21915L140.825 9.24015C141.958 10.2182 143.074 11.3763 144.141 12.6814C143.49 13.5664 142.836 14.4395 142.19 15.2795L140.819 15.3815H140.785L140.894 16.8066L144.431 16.4946V26.7582H145.962V16.3866L147.877 16.2096C147.928 16.5306 147.985 16.8426 148.052 17.1456L148.058 17.1756L149.535 16.9566L149.526 16.9206C149.252 15.6576 148.857 14.3225 148.344 12.9544V12.9514Z" fill="white"/>
<path d="M150.461 5.55566V26.752H151.965V7.00475H161.492V24.1148C161.492 24.8109 161.152 25.1499 160.449 25.1499H158.453L158.583 25.6149C158.767 26.281 159.325 26.704 160.021 26.704H160.5C162.159 26.704 162.997 25.8519 162.997 24.1688V5.55566H150.458H150.461Z" fill="white"/>
</g>
<defs>
<clipPath id="clip0_326_2900">
<rect width="163" height="32" fill="white"/>
</clipPath>
</defs>
</svg>

<svg xmlns="http://www.w3.org/2000/svg" width="163" height="32" fill="none"><g clip-path="url(#a)"><path fill="#F46C00" d="M29.719.063C29.029.012 23.927 0 16.06 0S3.102.012 2.406.063c-.7.051-1.287.234-1.697.636-.407.4-.591.96-.643 1.63C.016 2.996 0 8.145 0 15.978s.015 12.985.066 13.654.236 1.233.64 1.629 1 .576 1.697.636c.7.06 5.792.102 13.658.102s12.958-.042 13.658-.102 1.287-.234 1.7-.636c.404-.396.588-.96.64-1.63.05-.665.063-5.82.063-13.653s-.012-12.982-.063-13.65c-.052-.67-.236-1.23-.64-1.63-.41-.405-1-.585-1.7-.636"/><path fill="#fff" d="M21.832 7.138c-1.227-.06-2.886-.084-5.768-.084s-4.547.024-5.77.084c-1.225.06-2.292.42-3.076 1.128-.85.77-1.342 1.884-1.363 3.171-.02 1.29-.024 2.091-.024 4.173s.006 2.904.024 4.174c.021 1.269.51 2.4 1.36 3.17.784.712 1.857 1.066 3.075 1.129s2.886.12 5.771.12 4.54-.057 5.768-.12c1.22-.066 2.294-.42 3.075-1.128.85-.771 1.342-1.902 1.36-3.171.02-1.27.027-2.086.027-4.174s-.006-2.883-.027-4.173-.513-2.403-1.363-3.171c-.784-.708-1.854-1.071-3.075-1.128z"/><path fill="#000" d="M20.176 10.678h-.859v6.063h.86c.726 0 .97-.516.97-1.08v-3.9c0-.564-.244-1.08-.97-1.08zM14.158 19.717c.079 1.002.594 1.857 1.909 1.857s1.83-.855 1.908-1.857h-3.817M12.901 15.748c0 .543-.235 1.038-.931 1.038s-.932-.495-.932-1.038v-5.07h1.86v5.07z"/><path fill="#fff" d="M37.486 7.006h.898v15.076c-.473.087-.938.18-1.384.282l-.033.006.322 1.473.034-.006c1.99-.444 3.859-.933 5.553-1.446v4.365h1.532V7.006h1.052v-1.45H37.49v1.45zm2.403 3.786v-3.79h2.984v3.79zm0 5.004V12.14h2.984v3.657zm0 5.929v-4.612h2.984v3.874c-.943.219-1.947.468-2.984.738M58.91 15.133l.006.033 1.276-.276-.01-.033a22 22 0 0 0-1.233-3.288l-.012-.027-1.194.33.015.036q.282.672.546 1.29l-2.644.372c1.68-2.136 2.93-4.071 3.724-5.751l.011-.027-1.079-.642-.033-.018-.015.033a37 37 0 0 1-1.64 2.952c-.483-.591-.95-1.14-1.39-1.638a32 32 0 0 0 2.014-3.397l.015-.033-1.218-.522-.015.03A24.5 24.5 0 0 1 54.29 7.54a7 7 0 0 0-.59-.57l-.028-.025-.784 1.099.021.02a23 23 0 0 1 2.907 3.18 128 128 0 0 1-1.978 2.548l-.72.108.011.039c.136.396.23.789.28 1.167v.033l5.295-.756q.123.375.196.75zM50.39 18.772c0 .627-.043 1.227-.124 1.791h-2.144v-4.377h-1.531v5.721h3.32q-.147.361-.314.732c-.51 1.084-1.523 2.122-3.015 3.088l-.037.024 1.128 1.116.024-.015c1.59-1.041 2.708-2.202 3.323-3.454.597-1.284.901-2.84.901-4.626v-2.898H50.39zM57.83 20.77h-2.29v-4.899h-1.532V26.81h.057c.841 0 1.474-.63 1.474-1.467v-3.229h3.8v-5.928h-1.505v4.584zM51.638 11.725l-.01-.027-1.22.219.015.039c.145.393.286.801.422 1.209l-2.415.297c1.727-2.067 3.024-3.96 3.85-5.622l.012-.027-1.11-.714-.018.033a38 38 0 0 1-1.667 2.826c-.443-.516-.895-1.032-1.338-1.536a27 27 0 0 0 2.089-3.318l.018-.033-1.218-.55-.015.027a29 29 0 0 1-1.821 2.959c-.211-.213-.42-.405-.615-.573l-.03-.024-.757 1.152.024.018c.98.822 1.957 1.83 2.903 2.997a170 170 0 0 1-2.104 2.574l-1.028.135.012.04c.136.395.23.788.28 1.166v.033l5.267-.65q.075.4.148.725l.006.03 1.212-.186.033-.006-.006-.033a18.3 18.3 0 0 0-.925-3.183zM66.095 26.753h1.531v-1.224h14.3v1.26h.058c.841 0 1.474-.63 1.474-1.468v-8.277H66.095zm15.832-8.26v5.586h-14.3v-5.586zM81.098 12.382H68.199v1.422h12.898z"/><path fill="#fff" d="M86.31 13.063c-5.424-2.676-9.114-5.53-10.968-8.482l-.01-.015h-1.371l-.01.015c-2.091 2.935-5.824 5.86-11.097 8.692l-.033.018.805 1.281.027-.015c4.637-2.38 8.324-5.238 10.965-8.494 2.234 3.052 5.864 5.857 10.788 8.338l.027.012.91-1.332-.036-.018zM103.161 12.487V7.573c2.816-.396 5.412-.94 7.725-1.611l.042-.012-.766-1.287-.012-.024-.024.009c-2.858.864-5.705 1.425-8.46 1.665h-.03v8.085c0 2.451-.163 4.615-.486 6.43a15.2 15.2 0 0 1-1.87 5.094l-.017.03 1.42.735.015-.027c.938-1.578 1.592-3.354 1.942-5.286s.527-4.278.527-6.976v-.486h4.191v12.856h.03c.841 0 1.475-.63 1.475-1.467V13.912h3.054V12.49h-8.75zM99.374 21.298a20.2 20.2 0 0 1-3.732-3.138v-.369h4.54v-1.449h-4.54V13.7h4.055v-1.422H97.81l1.058-3.972h1.317V6.883h-4.54V4.485h-1.532v2.398h-4.721v1.422h1.495l.983 3.972h-2.068v1.422h4.311v2.643h-4.9v1.45h4.596c-.57.998-1.191 1.928-1.843 2.756-.832 1.017-1.917 2.095-3.228 3.202l-.028.024 1.025 1.01.025-.02c1.432-1.23 2.571-2.37 3.391-3.39.32-.409.646-.85.965-1.318v6.7h1.532v-6.874c1.037 1.164 2.08 2.127 3.102 2.856l.033.024.618-1.446-.024-.015zm-2.089-12.99-1.01 3.972h-2.846l-.935-3.972h4.791M133.263 23.884l-.108-1.161h-.034q-1.009.108-2.041.207v-7.17h1.951v-1.24h-13.308v1.24h1.923v7.827c-.793.018-1.583.051-2.354.105h-.034l.055 1.266h.033c3.582-.138 7.013-.357 10.203-.648v2.028h1.531v-2.193a49 49 0 0 1 2.15-.255h.033zm-3.714-2.289v1.473c-2.069.156-4.221.303-6.398.438v-1.911zm0-2.841v1.704h-6.398v-1.704zm0-2.997v1.86h-6.398v-1.86z"/><path fill="#fff" d="M128.059 5.244v7.65h7.312v11.587c0 .45-.224.67-.685.67h-2.355l.13.464c.184.667.742 1.09 1.438 1.09h1.016c1.3 0 1.96-.679 1.96-2.014V5.244h-8.819zm1.505 3.255V6.483h5.807V8.5zm0 3.153V9.739h5.807v1.915zM124.767 5.244h-8.843v21.509h1.504V12.892h7.339v-7.65zm-1.532 4.494v1.915h-5.807V9.738zm0-3.255V8.5h-5.807V6.483zM141.66 18.613c-.118 1.224-.241 2.136-.359 2.706-.103.61-.362 1.665-.796 3.229l-.009.036 1.501.213h.031l.009-.024c.355-1.363.597-2.398.717-3.079.121-.696.232-1.695.335-2.973v-.033l-1.423-.108v.033zM148.754 18.502l-1.29.054h-.037l.003.036c.154 1.677.239 3.183.257 4.48v.032h1.35v-.033c.019-.849-.078-2.376-.28-4.536v-.033zM160.048 21.32h-4.037c-.223 0-.325-.097-.325-.307v-4.188h4.848v-1.344h-3.003v-2.643h3.003v-1.344h-1.499l1.128-3.04-1.399-.24-.027-.005-1.131 3.288h-1.541l-1.019-3.363-.009-.03-1.426.327.998 3.066h-1.655v1.344h3.181v2.643h-3.181v1.344h1.206v4.473c0 .972.485 1.467 1.444 1.467h4.447V21.32z"/><path fill="#fff" d="m148.344 12.951-.009-.027-1.324.22.012.038c.199.573.377 1.146.528 1.704l-3.425.253a53 53 0 0 0 4.526-7.135l.018-.033-1.366-.615-.03-.012-.015.03a48 48 0 0 1-2.31 4.074 29 29 0 0 0-1.724-1.926 48 48 0 0 0 2.704-4.41l.018-.033-1.29-.561-.03-.012-.016.03a31 31 0 0 1-2.412 4 4 4 0 0 0-.539-.496l-.027-.02-.814 1.175-.019.024.025.021a28 28 0 0 1 3.316 3.441 153 153 0 0 1-1.951 2.599l-1.371.102h-.034l.109 1.425 3.537-.312v10.263h1.531V16.387l1.915-.177q.075.48.175.936l.006.03 1.477-.22-.009-.035a29 29 0 0 0-1.182-3.967zM150.461 5.556v21.196h1.504V7.005h9.527v17.11c0 .696-.34 1.035-1.043 1.035h-1.996l.13.465c.184.666.742 1.089 1.438 1.089h.479c1.659 0 2.497-.852 2.497-2.535V5.556h-12.539z"/></g><defs><clipPath id="a"><path fill="#fff" d="M0 0h163v32H0z"/></clipPath></defs></svg>
